; G-Code generated by Simplify3D(R) Version 4.1.2
; Jan 12, 2021 at 3:36:30 PM
; Settings Summary
;   processName,Extruder-T0
;   applyToModels,Columns-T0
;   profileName,Ender3-Pro-SMuFF (modified)
;   profileVersion,2020-06-01 13:47:50
;   baseProfile,Default
;   printMaterial,PLA
;   printQuality,Medium
;   printExtruders,All Extruders
;   extruderName,T0,T1,T2,T3,T4
;   extruderToolheadNumber,0,1,2,3,4
;   extruderDiameter,0.4,0.4,0.4,0.4,0.4
;   extruderAutoWidth,0,0,0,0,0
;   extruderWidth,0.44,0.44,0.44,0.44,0.44
;   extrusionMultiplier,1,1,1,1,1
;   extruderUseRetract,1,1,1,1,1
;   extruderRetractionDistance,5,5,5,5,5
;   extruderExtraRestartDistance,0,0,0,0,0
;   extruderRetractionZLift,0,0,0,0,0
;   extruderRetractionSpeed,3600,3600,3600,3600,3600
;   extruderUseCoasting,0,0,0,0,0
;   extruderCoastingDistance,0.2,0.2,0.2,0.2,0.2
;   extruderUseWipe,0,0,0,0,0
;   extruderWipeDistance,5,5,5,5,5
;   primaryExtruder,0
;   layerHeight,0.2
;   topSolidLayers,4
;   bottomSolidLayers,4
;   perimeterOutlines,3
;   printPerimetersInsideOut,1
;   startPointOption,3
;   startPointOriginX,0
;   startPointOriginY,0
;   sequentialIslands,0
;   spiralVaseMode,0
;   firstLayerHeightPercentage,100
;   firstLayerWidthPercentage,100
;   firstLayerUnderspeed,0.5
;   useRaft,0
;   raftExtruder,0
;   raftTopLayers,3
;   raftBaseLayers,2
;   raftOffset,3
;   raftSeparationDistance,0.14
;   raftTopInfill,100
;   aboveRaftSpeedMultiplier,0.3
;   useSkirt,1
;   skirtExtruder,0
;   skirtLayers,1
;   skirtOutlines,5
;   skirtOffset,4
;   usePrimePillar,0
;   primePillarExtruder,999
;   primePillarWidth,18
;   primePillarLocation,7
;   primePillarSpeedMultiplier,1
;   useOozeShield,1
;   oozeShieldExtruder,999
;   oozeShieldOffset,2
;   oozeShieldOutlines,2
;   oozeShieldSidewallShape,0
;   oozeShieldSidewallAngle,0
;   oozeShieldSpeedMultiplier,1
;   infillExtruder,0
;   internalInfillPattern,Rectilinear
;   externalInfillPattern,Rectilinear
;   infillPercentage,20
;   outlineOverlapPercentage,15
;   infillExtrusionWidthPercentage,100
;   minInfillLength,5
;   infillLayerInterval,1
;   internalInfillAngles,45,-45
;   overlapInternalInfillAngles,0
;   externalInfillAngles,0,90,0,90,0
;   generateSupport,0
;   supportExtruder,1
;   supportInfillPercentage,30
;   supportExtraInflation,0
;   supportBaseLayers,0
;   denseSupportExtruder,1
;   denseSupportLayers,0
;   denseSupportInfillPercentage,70
;   supportLayerInterval,1
;   supportHorizontalPartOffset,0.3
;   supportUpperSeparationLayers,1
;   supportLowerSeparationLayers,1
;   supportType,0
;   supportGridSpacing,4
;   maxOverhangAngle,45
;   supportAngles,0
;   temperatureName,T0,T1,T2,T3,T4,Heated Bed
;   temperatureNumber,0,1,2,3,4,0
;   temperatureSetpointCount,1,1,1,1,1,1
;   temperatureSetpointLayers,1,1,1,1,1,1
;   temperatureSetpointTemperatures,205,205,205,205,205,55
;   temperatureStabilizeAtStartup,1,1,1,1,1,1
;   temperatureHeatedBed,0,0,0,0,0,1
;   fanLayers,1,2
;   fanSpeeds,0,100
;   blipFanToFullPower,0
;   adjustSpeedForCooling,1
;   minSpeedLayerTime,5
;   minCoolingSpeedSlowdown,20
;   increaseFanForCooling,0
;   minFanLayerTime,45
;   maxCoolingFanSpeed,100
;   increaseFanForBridging,0
;   bridgingFanSpeed,100
;   use5D,1
;   relativeEdistances,1
;   allowEaxisZeroing,1
;   independentExtruderAxes,0
;   includeM10123,0
;   stickySupport,1
;   applyToolheadOffsets,0
;   gcodeXoffset,0
;   gcodeYoffset,0
;   gcodeZoffset,0
;   overrideMachineDefinition,1
;   machineTypeOverride,0
;   strokeXoverride,220
;   strokeYoverride,220
;   strokeZoverride,250
;   originOffsetXoverride,-5
;   originOffsetYoverride,-5
;   originOffsetZoverride,0
;   homeXdirOverride,-1
;   homeYdirOverride,-1
;   homeZdirOverride,-1
;   flipXoverride,1
;   flipYoverride,-1
;   flipZoverride,1
;   toolheadOffsets,0,0|0,0|0,0|0,0|0,0|0,0
;   overrideFirmwareConfiguration,1
;   firmwareTypeOverride,RepRap (Marlin/Repetier/Sprinter)
;   GPXconfigOverride,r2
;   baudRateOverride,115200
;   overridePrinterModels,0
;   printerModelsOverride
;   startingGcode,G28 ; home all axes
;   layerChangeGcode,
;   retractionGcode,
;   toolChangeGcode,
;   endingGcode,M104 S0 ; turn off extruder,M140 S0 ; turn off bed,M84 ; disable motors
;   exportFileFormat,gcode
;   celebration,0
;   celebrationSong,Random Song
;   postProcessing,
;   defaultSpeed,4200
;   outlineUnderspeed,0.7
;   solidInfillUnderspeed,0.8
;   supportUnderspeed,0.8
;   rapidXYspeed,4800
;   rapidZspeed,1500
;   minBridgingArea,50
;   bridgingExtraInflation,0
;   bridgingExtrusionMultiplier,1
;   bridgingSpeedMultiplier,1
;   useFixedBridgingAngle,0
;   fixedBridgingAngle,0
;   applyBridgingToPerimeters,0
;   filamentDiameters,1.75|1.75|1.75|1.75|1.75|1.75
;   filamentPricesPerKg,46|46|46|46|46|46
;   filamentDensities,1.25|1.25|1.25|1.25|1.25|1.25
;   useMinPrintHeight,0
;   minPrintHeight,0
;   useMaxPrintHeight,0
;   maxPrintHeight,16.8
;   useDiaphragm,0
;   diaphragmLayerInterval,20
;   robustSlicing,1
;   mergeAllIntoSolid,0
;   onlyRetractWhenCrossingOutline,1
;   retractBetweenLayers,1
;   useRetractionMinTravel,0
;   retractionMinTravel,3
;   retractWhileWiping,0
;   onlyWipeOutlines,1
;   avoidCrossingOutline,0
;   maxMovementDetourFactor,3
;   toolChangeRetractionDistance,0
;   toolChangeExtraRestartDistance,0
;   toolChangeRetractionSpeed,600
;   externalThinWallType,0
;   internalThinWallType,2
;   thinWallAllowedOverlapPercentage,10
;   singleExtrusionMinLength,1
;   singleExtrusionMinPrintingWidthPercentage,50
;   singleExtrusionMaxPrintingWidthPercentage,200
;   singleExtrusionEndpointExtension,0.2
;   horizontalSizeCompensation,0
G90
M83
M106 S0
M140 S55
M190 S55
M104 S205 T0
M104 S205 T1
M104 S205 T2
M104 S205 T3
M104 S205 T4
M109 S205 T0
M109 S205 T1
M109 S205 T2
M109 S205 T3
M109 S205 T4
G28 ; home all axes
; process Extruder-T0
; layer 1, Z = 0.200
T0
G1 E-5.0000 F3600
; feature skirt
; tool H0.200 W0.440
G1 Z0.200 F1500
G1 X99.694 Y99.560 F4800
G1 E5.0000 F3600
G1 X99.899 Y99.360 E0.0105 F2100
G1 X101.229 Y98.176 E0.0652
G1 X101.463 Y97.989 E0.0110
G1 X103.055 Y96.836 E0.0719
G1 X103.305 Y96.672 E0.0110
G1 X104.844 Y95.778 E0.0651
G1 X105.094 Y95.647 E0.0103
G1 X106.703 Y94.905 E0.0648
G1 X106.965 Y94.799 E0.0103
G1 X108.640 Y94.211 E0.0650
G1 X108.913 Y94.129 E0.0104
G1 X110.663 Y93.696 E0.0660
G1 X110.947 Y93.641 E0.0106
G1 X112.745 Y93.377 E0.0665
G1 X113.048 Y93.348 E0.0111
G1 X115.027 Y93.261 E0.0725
G1 X115.253 Y93.260 E0.0083
G1 X116.076 Y93.286 E0.0301
G1 X116.273 Y93.299 E0.0072
G1 X118.022 Y93.471 E0.0643
G1 X118.305 Y93.512 E0.0105
G1 X120.058 Y93.856 E0.0654
G1 X120.334 Y93.924 E0.0104
G1 X122.040 Y94.431 E0.0651
G1 X122.323 Y94.530 E0.0110
G1 X124.142 Y95.275 E0.0719
G1 X124.413 Y95.402 E0.0110
G1 X125.988 Y96.240 E0.0653
G1 X126.233 Y96.386 E0.0104
G1 X127.736 Y97.380 E0.0659
G1 X127.967 Y97.550 E0.0105
G1 X129.356 Y98.674 E0.0654
G1 X129.573 Y98.867 E0.0106
G1 X130.889 Y100.162 E0.0675
G1 X131.079 Y100.368 E0.0103
G1 X132.166 Y101.659 E0.0618
G1 X132.333 Y101.878 E0.0101
G1 X133.342 Y103.328 E0.0646
G1 X133.493 Y103.569 E0.0104
G1 X134.375 Y105.138 E0.0658
G1 X134.509 Y105.407 E0.0110
G1 X135.297 Y107.212 E0.0720
G1 X135.406 Y107.503 E0.0114
G1 X135.993 Y109.347 E0.0708
G1 X136.069 Y109.636 E0.0109
G1 X136.438 Y111.384 E0.0654
G1 X136.484 Y111.667 E0.0105
G1 X136.686 Y113.469 E0.0664
G1 X136.705 Y113.766 E0.0109
G1 X136.729 Y115.679 E0.0700
G1 X136.718 Y115.975 E0.0109
G1 X136.562 Y117.782 E0.0664
G1 X136.523 Y118.066 E0.0105
G1 X136.200 Y119.818 E0.0652
G1 X136.131 Y120.110 E0.0110
G1 X135.583 Y121.997 E0.0719
G1 X135.486 Y122.281 E0.0110
G1 X134.819 Y123.935 E0.0653
G1 X134.700 Y124.195 E0.0104
G1 X133.872 Y125.794 E0.0659
G1 X133.729 Y126.041 E0.0104
G1 X132.767 Y127.530 E0.0649
G1 X132.604 Y127.758 E0.0103
G1 X131.529 Y129.122 E0.0635
G1 X131.367 Y129.311 E0.0091
G1 X130.463 Y130.280 E0.0485
G1 X130.338 Y130.406 E0.0065
G1 X129.581 Y131.126 E0.0382
G1 X129.411 Y131.276 E0.0083
G1 X128.047 Y132.390 E0.0645
G1 X127.818 Y132.559 E0.0104
G1 X126.334 Y133.552 E0.0653
G1 X126.087 Y133.701 E0.0106
G1 X124.478 Y134.566 E0.0668
G1 X124.221 Y134.688 E0.0104
G1 X122.631 Y135.357 E0.0631
G1 X122.366 Y135.454 E0.0103
G1 X120.629 Y135.999 E0.0666
G1 X120.350 Y136.072 E0.0105
G1 X118.607 Y136.439 E0.0652
G1 X118.328 Y136.484 E0.0104
G1 X116.568 Y136.684 E0.0648
G1 X116.286 Y136.702 E0.0103
G1 X114.507 Y136.735 E0.0651
G1 X114.207 Y136.726 E0.0110
G1 X112.248 Y136.565 E0.0719
G1 X111.951 Y136.526 E0.0110
G1 X110.197 Y136.203 E0.0653
G1 X109.919 Y136.138 E0.0104
G1 X108.187 Y135.645 E0.0659
G1 X107.916 Y135.554 E0.0104
G1 X106.264 Y134.908 E0.0649
G1 X106.006 Y134.793 E0.0103
G1 X104.425 Y133.995 E0.0648
G1 X104.179 Y133.856 E0.0103
G1 X102.679 Y132.912 E0.0648
G1 X102.445 Y132.749 E0.0104
G1 X101.017 Y131.648 E0.0660
G1 X100.787 Y131.450 E0.0111
G1 X99.338 Y130.078 E0.0730
G1 X99.124 Y129.852 E0.0114
G1 X97.880 Y128.400 E0.0700
G1 X97.698 Y128.164 E0.0109
G1 X96.662 Y126.677 E0.0663
G1 X96.510 Y126.436 E0.0104
G1 X95.639 Y124.890 E0.0649
G1 X95.513 Y124.638 E0.0103
G1 X94.792 Y123.019 E0.0648
G1 X94.689 Y122.753 E0.0104
G1 X94.119 Y121.052 E0.0657
G1 X94.041 Y120.777 E0.0104
G1 X93.639 Y119.042 E0.0652
G1 X93.587 Y118.753 E0.0107
G1 X93.339 Y116.860 E0.0699
G1 X93.316 Y116.564 E0.0108
G1 X93.261 Y114.774 E0.0655
G1 X93.265 Y114.490 E0.0104
G1 X93.379 Y112.719 E0.0649
G1 X93.411 Y112.436 E0.0104
G1 X93.698 Y110.657 E0.0659
G1 X93.756 Y110.378 E0.0104
G1 X94.206 Y108.652 E0.0653
G1 X94.296 Y108.366 E0.0110
G1 X94.980 Y106.523 E0.0719
G1 X95.099 Y106.248 E0.0110
G1 X95.884 Y104.644 E0.0654
G1 X96.024 Y104.391 E0.0106
G1 X96.986 Y102.829 E0.0671
G1 X97.152 Y102.587 E0.0107
G1 X98.278 Y101.108 E0.0680
G1 X98.466 Y100.884 E0.0107
G1 X99.694 Y99.560 E0.0661
G1 E-5.0000 F3600
G1 X100.010 Y99.867 F4800
G1 E5.0000 F3600
G1 X100.199 Y99.682 E0.0097 F2100
G1 X101.514 Y98.512 E0.0644
G1 X101.730 Y98.338 E0.0101
G1 X103.304 Y97.198 E0.0711
G1 X103.536 Y97.047 E0.0101
G1 X105.056 Y96.163 E0.0643
G1 X105.288 Y96.042 E0.0096
G1 X106.878 Y95.309 E0.0640
G1 X107.120 Y95.211 E0.0096
G1 X108.776 Y94.629 E0.0642
G1 X109.029 Y94.554 E0.0097
G1 X110.759 Y94.126 E0.0652
G1 X111.021 Y94.074 E0.0098
G1 X112.797 Y93.814 E0.0657
G1 X113.079 Y93.787 E0.0103
G1 X115.038 Y93.701 E0.0717
G1 X115.247 Y93.700 E0.0077
G1 X116.055 Y93.726 E0.0296
G1 X116.237 Y93.737 E0.0067
G1 X117.968 Y93.907 E0.0636
G1 X118.231 Y93.946 E0.0097
G1 X119.963 Y94.286 E0.0646
G1 X120.218 Y94.349 E0.0096
G1 X121.904 Y94.849 E0.0643
G1 X122.166 Y94.941 E0.0101
G1 X123.965 Y95.678 E0.0711
G1 X124.216 Y95.796 E0.0102
G1 X125.772 Y96.624 E0.0645
G1 X125.999 Y96.759 E0.0097
G1 X127.484 Y97.741 E0.0651
G1 X127.698 Y97.898 E0.0097
G1 X129.071 Y99.009 E0.0646
G1 X129.272 Y99.188 E0.0098
G1 X130.573 Y100.468 E0.0667
G1 X130.749 Y100.659 E0.0095
G1 X131.823 Y101.935 E0.0610
G1 X131.978 Y102.137 E0.0093
G1 X132.974 Y103.571 E0.0639
G1 X133.115 Y103.794 E0.0097
G1 X133.986 Y105.344 E0.0651
G1 X134.111 Y105.594 E0.0102
G1 X134.889 Y107.378 E0.0712
G1 X134.991 Y107.647 E0.0105
G1 X135.570 Y109.470 E0.0700
G1 X135.641 Y109.738 E0.0101
G1 X136.005 Y111.465 E0.0646
G1 X136.047 Y111.727 E0.0097
G1 X136.248 Y113.508 E0.0656
G1 X136.265 Y113.782 E0.0101
G1 X136.289 Y115.673 E0.0692
G1 X136.279 Y115.948 E0.0101
G1 X136.124 Y117.734 E0.0656
G1 X136.089 Y117.997 E0.0097
G1 X135.770 Y119.728 E0.0644
G1 X135.706 Y119.998 E0.0102
G1 X135.164 Y121.864 E0.0711
G1 X135.073 Y122.127 E0.0102
G1 X134.415 Y123.761 E0.0645
G1 X134.305 Y124.001 E0.0097
G1 X133.486 Y125.582 E0.0651
G1 X133.353 Y125.811 E0.0097
G1 X132.403 Y127.282 E0.0641
G1 X132.252 Y127.494 E0.0095
G1 X131.189 Y128.842 E0.0628
G1 X131.039 Y129.017 E0.0084
G1 X130.146 Y129.975 E0.0479
G1 X130.030 Y130.092 E0.0060
G1 X129.284 Y130.801 E0.0376
G1 X129.127 Y130.940 E0.0077
G1 X127.777 Y132.043 E0.0638
G1 X127.565 Y132.199 E0.0096
G1 X126.098 Y133.180 E0.0646
G1 X125.869 Y133.318 E0.0098
G1 X124.278 Y134.173 E0.0661
G1 X124.041 Y134.287 E0.0096
G1 X122.470 Y134.948 E0.0624
G1 X122.224 Y135.038 E0.0096
G1 X120.507 Y135.576 E0.0658
G1 X120.249 Y135.644 E0.0098
G1 X118.527 Y136.006 E0.0644
G1 X118.268 Y136.048 E0.0096
G1 X116.528 Y136.246 E0.0640
G1 X116.267 Y136.263 E0.0096
G1 X114.509 Y136.295 E0.0643
G1 X114.232 Y136.286 E0.0101
G1 X112.295 Y136.128 E0.0711
G1 X112.020 Y136.091 E0.0102
G1 X110.287 Y135.773 E0.0645
G1 X110.029 Y135.712 E0.0097
G1 X108.317 Y135.225 E0.0651
G1 X108.067 Y135.141 E0.0097
G1 X106.434 Y134.502 E0.0641
G1 X106.195 Y134.396 E0.0096
G1 X104.633 Y133.607 E0.0640
G1 X104.405 Y133.478 E0.0096
G1 X102.922 Y132.546 E0.0641
G1 X102.706 Y132.394 E0.0097
G1 X101.295 Y131.306 E0.0652
G1 X101.081 Y131.123 E0.0103
G1 X99.649 Y129.766 E0.0722
G1 X99.451 Y129.557 E0.0106
G1 X98.221 Y128.122 E0.0691
G1 X98.052 Y127.904 E0.0101
G1 X97.029 Y126.435 E0.0655
G1 X96.888 Y126.211 E0.0097
G1 X96.028 Y124.684 E0.0641
G1 X95.910 Y124.450 E0.0096
G1 X95.198 Y122.849 E0.0641
G1 X95.103 Y122.603 E0.0097
G1 X94.539 Y120.922 E0.0649
G1 X94.468 Y120.667 E0.0097
G1 X94.070 Y118.953 E0.0644
G1 X94.022 Y118.686 E0.0099
G1 X93.777 Y116.814 E0.0691
G1 X93.755 Y116.540 E0.0100
G1 X93.701 Y114.771 E0.0648
G1 X93.705 Y114.508 E0.0096
G1 X93.818 Y112.758 E0.0641
G1 X93.847 Y112.495 E0.0097
G1 X94.130 Y110.738 E0.0651
G1 X94.185 Y110.479 E0.0097
G1 X94.629 Y108.774 E0.0645
G1 X94.713 Y108.509 E0.0102
G1 X95.389 Y106.687 E0.0711
G1 X95.499 Y106.432 E0.0102
G1 X96.275 Y104.847 E0.0646
G1 X96.404 Y104.613 E0.0098
G1 X97.355 Y103.069 E0.0663
G1 X97.509 Y102.845 E0.0100
G1 X98.621 Y101.382 E0.0672
G1 X98.796 Y101.175 E0.0099
G1 X100.010 Y99.867 E0.0653
G1 E-5.0000 F3600
G1 X100.325 Y100.174 F4800
G1 E5.0000 F3600
G1 X100.499 Y100.004 E0.0089 F2100
G1 X101.798 Y98.848 E0.0636
G1 X101.997 Y98.688 E0.0093
G1 X103.553 Y97.561 E0.0703
G1 X103.767 Y97.422 E0.0093
G1 X105.268 Y96.549 E0.0635
G1 X105.482 Y96.438 E0.0088
G1 X107.052 Y95.713 E0.0633
G1 X107.276 Y95.622 E0.0088
G1 X108.912 Y95.048 E0.0634
G1 X109.145 Y94.978 E0.0089
G1 X110.854 Y94.556 E0.0644
G1 X111.096 Y94.508 E0.0090
G1 X112.850 Y94.251 E0.0649
G1 X113.109 Y94.226 E0.0095
G1 X115.049 Y94.141 E0.0710
G1 X115.242 Y94.140 E0.0071
G1 X116.034 Y94.165 E0.0290
G1 X116.201 Y94.176 E0.0062
G1 X117.915 Y94.344 E0.0630
G1 X118.156 Y94.380 E0.0089
G1 X119.868 Y94.716 E0.0638
G1 X120.103 Y94.773 E0.0089
G1 X121.769 Y95.268 E0.0636
G1 X122.010 Y95.353 E0.0093
G1 X123.788 Y96.081 E0.0703
G1 X124.019 Y96.190 E0.0094
G1 X125.556 Y97.007 E0.0637
G1 X125.765 Y97.132 E0.0089
G1 X127.233 Y98.103 E0.0644
G1 X127.430 Y98.247 E0.0089
G1 X128.786 Y99.345 E0.0638
G1 X128.971 Y99.510 E0.0091
G1 X130.257 Y100.774 E0.0660
G1 X130.419 Y100.950 E0.0088
G1 X131.480 Y102.210 E0.0603
G1 X131.623 Y102.397 E0.0086
G1 X132.607 Y103.813 E0.0631
G1 X132.736 Y104.019 E0.0089
G1 X133.597 Y105.550 E0.0643
G1 X133.712 Y105.780 E0.0094
G1 X134.482 Y107.543 E0.0704
G1 X134.575 Y107.791 E0.0097
G1 X135.148 Y109.593 E0.0692
G1 X135.213 Y109.839 E0.0093
G1 X135.572 Y111.545 E0.0638
G1 X135.611 Y111.786 E0.0089
G1 X135.809 Y113.546 E0.0648
G1 X135.825 Y113.799 E0.0093
G1 X135.849 Y115.668 E0.0684
G1 X135.840 Y115.921 E0.0093
G1 X135.687 Y117.685 E0.0648
G1 X135.654 Y117.927 E0.0089
G1 X135.339 Y119.637 E0.0636
G1 X135.280 Y119.885 E0.0093
G1 X134.744 Y121.731 E0.0703
G1 X134.661 Y121.973 E0.0094
G1 X134.011 Y123.587 E0.0637
G1 X133.909 Y123.808 E0.0089
G1 X133.100 Y125.370 E0.0644
G1 X132.978 Y125.581 E0.0089
G1 X132.039 Y127.035 E0.0633
G1 X131.900 Y127.229 E0.0088
G1 X130.849 Y128.562 E0.0621
G1 X130.711 Y128.724 E0.0078
G1 X129.828 Y129.670 E0.0473
G1 X129.721 Y129.778 E0.0056
G1 X128.987 Y130.477 E0.0371
G1 X128.842 Y130.605 E0.0071
G1 X127.506 Y131.695 E0.0631
G1 X127.311 Y131.840 E0.0089
G1 X125.862 Y132.809 E0.0638
G1 X125.652 Y132.936 E0.0090
G1 X124.079 Y133.781 E0.0653
G1 X123.861 Y133.885 E0.0089
G1 X122.309 Y134.538 E0.0616
G1 X122.083 Y134.621 E0.0088
G1 X120.385 Y135.153 E0.0651
G1 X120.148 Y135.215 E0.0090
G1 X118.446 Y135.574 E0.0636
G1 X118.208 Y135.612 E0.0088
G1 X116.489 Y135.807 E0.0633
